X:1
T:Honorable Mrs. John Ramsay's Reel, The
T:Honorable Mrs. John Ramsay's Reel, The
T:Nathaniel Gow (1763-1831)
C:Nathaniel Gow (1763-1831)
L:1/8
M:2/2
K:Bb
V:1 treble 
V:1
 E | (D/E/F) Fd BG F2 | GBFB A(cc)e | (D/E/F) Fd BGFB | DFEF DB,B, :| e | dBfB cAec | dBGB FBDe | %8
 dBfB cAec | dfce dBBf | (d/c/B) fB cAec | dBGB FBDC | B,DFD GEec | dBcA B2 B || %14

